icons/codefactor.svg

<?xml version="1.0" encoding="UTF-8"?>
<svg width="256px" height="259px" viewBox="0 0 256 259" version="1.1" xmlns="http://www.w3.org/2000/svg" xmlns:xlink="http://www.w3.org/1999/xlink" preserveAspectRatio="xMidYMid">
    <defs>
        <linearGradient x1="-0.002%" y1="49.998%" x2="100.002%" y2="49.998%" id="linearGradient-1">
            <stop stop-color="#0AA1A5" offset="0%"></stop>
            <stop stop-color="#50D690" offset="100%"></stop>
        </linearGradient>
        <linearGradient x1="-0.002%" y1="49.998%" x2="100.002%" y2="49.998%" id="linearGradient-2">
            <stop stop-color="#0AA1A5" offset="0%"></stop>
            <stop stop-color="#50D690" offset="100%"></stop>
        </linearGradient>
    </defs>
    <g>
        <path d="M56.5856614,28.5726041 C56.5856614,44.3589679 43.9184736,57.1452083 28.2987833,57.1452083 C12.6671878,57.1452083 0,44.3589679 0,28.5726041 C0,12.7862403 12.6671878,0 28.2987833,0 C43.9184736,0 56.5856614,12.7862403 56.5856614,28.5726041 Z M56.5856614,129.314844 C56.5856614,145.089303 43.9184736,157.887448 28.2987833,157.887448 C12.6671878,157.887448 3.55271368e-15,145.089303 3.55271368e-15,129.314844 C3.55271368e-15,113.52848 12.6671878,100.74224 28.2987833,100.74224 C43.9184736,100.74224 56.5856614,113.52848 56.5856614,129.314844 Z M56.5856614,230.045179 C56.5856614,245.831543 43.9184736,258.617783 28.2987833,258.617783 C12.6671878,258.617783 3.55271368e-15,245.831543 3.55271368e-15,230.045179 C3.55271368e-15,214.258815 12.6671878,201.472575 28.2987833,201.472575 C43.9184736,201.472575 56.5856614,214.258815 56.5856614,230.045179 Z" fill="#F44A6A"></path>
        <path d="M120.576389,0 C104.956699,0 92.2895113,12.7862403 92.2895113,28.5726041 C92.2895113,44.3589679 104.956699,57.1452083 120.576389,57.1452083 L227.723655,57.1452083 C243.343345,57.1452083 255.998628,44.3589679 255.998628,28.5726041 C255.998628,12.7862403 243.343345,0 227.71175,0 L120.564484,0 L120.576389,0 Z" fill="url(#linearGradient-1)"></path>
        <path d="M120.576389,100.730335 C104.956699,100.730335 92.2895113,113.52848 92.2895113,129.302939 C92.2895113,145.089303 104.956699,157.887448 120.576389,157.887448 L181.745573,157.887448 C197.365263,157.887448 210.032451,145.089303 210.032451,129.314844 C210.032451,113.52848 197.365263,100.74224 181.745573,100.74224 L120.576389,100.74224 L120.576389,100.730335 Z" fill="url(#linearGradient-2)"></path>
    </g>
</svg>

<svg xmlns="http://www.w3.org/2000/svg" viewBox="0 0 255.999 258.618">
  <defs>
    <linearGradient id="a" x1="54.524" x2="151.25" y1="48.359" y2="48.359" gradientTransform="scale(1.69257 .59082)" gradientUnits="userSpaceOnUse">
      <stop offset="0%" stop-color="#0AA1A5"/>
      <stop offset="100%" stop-color="#50D690"/>
    </linearGradient>
    <linearGradient id="b" x1="64.3" x2="146.339" y1="185.591" y2="185.591" gradientTransform="scale(1.43527 .69674)" gradientUnits="userSpaceOnUse">
      <stop offset="0%" stop-color="#0AA1A5"/>
      <stop offset="100%" stop-color="#50D690"/>
    </linearGradient>
  </defs>
  <path fill="#f44a6a" d="M56.586 28.573c0 15.786-12.668 28.572-28.287 28.572C12.667 57.145 0 44.36 0 28.573 0 12.786 12.667 0 28.299 0c15.62 0 28.287 12.786 28.287 28.573zm0 100.742c0 15.774-12.668 28.572-28.287 28.572C12.667 157.887 0 145.09 0 129.315c0-15.787 12.667-28.573 28.299-28.573 15.62 0 28.287 12.786 28.287 28.573zm0 100.73c0 15.787-12.668 28.573-28.287 28.573C12.667 258.618 0 245.832 0 230.045c0-15.786 12.667-28.572 28.299-28.572 15.62 0 28.287 12.786 28.287 28.572z"/>
  <path fill="url(#a)" d="M120.576 0C104.956 0 92.29 12.786 92.29 28.573c0 15.786 12.667 28.572 28.286 28.572h107.148c15.62 0 28.275-12.786 28.275-28.572C255.999 12.786 243.343 0 227.712 0H120.564z" style="fill:url(#a)"/>
  <path fill="url(#b)" d="M120.576 100.73c-15.62 0-28.286 12.798-28.286 28.573 0 15.786 12.667 28.584 28.286 28.584h61.17c15.62 0 28.286-12.798 28.286-28.572 0-15.787-12.667-28.573-28.286-28.573h-61.17z" style="fill:url(#b)"/>
</svg>
